svgs/uber_eats_orders.svg

<?xml version="1.0" encoding="UTF-8" standalone="no"?>
<!-- Created with Inkscape (http://www.inkscape.org/) -->

<svg
   width="192px"
   height="192px"
   viewBox="0 0 192 192"
   version="1.1"
   id="SVGRoot"
   sodipodi:docname="uber_eats_orders.svg"
   inkscape:version="1.1.2 (b8e25be833, 2022-02-05)"
   xmlns:inkscape="http://www.inkscape.org/namespaces/inkscape"
   xmlns:sodipodi="http://sodipodi.sourceforge.net/DTD/sodipodi-0.dtd"
   xmlns="http://www.w3.org/2000/svg"
   xmlns:svg="http://www.w3.org/2000/svg">
  <sodipodi:namedview
     id="namedview1615"
     pagecolor="#ffffff"
     bordercolor="#666666"
     borderopacity="1.0"
     inkscape:pageshadow="2"
     inkscape:pageopacity="0.0"
     inkscape:pagecheckerboard="0"
     inkscape:document-units="px"
     showgrid="false"
     inkscape:zoom="0.64052329"
     inkscape:cx="396.55076"
     inkscape:cy="560.47923"
     inkscape:window-width="1280"
     inkscape:window-height="961"
     inkscape:window-x="-8"
     inkscape:window-y="-8"
     inkscape:window-maximized="1"
     inkscape:current-layer="layer1" />
  <defs
     id="defs1610" />
  <g
     inkscape:label="Ebene 1"
     inkscape:groupmode="layer"
     id="layer1">
    <path
       d="M 16,16 H 176 V 176 H 16 Z"
       class="cls-1"
       id="path6"
       style="fill:none;stroke-width:0.999998" />
    <path
       d="m 32.658334,50.875 v 26.441666 c 0.641667,6.758337 6.783334,12.008335 14.066668,12.099997 7.425,0.100007 13.816667,-5.20833 14.466667,-12.099997 V 50.875"
       class="cls-3"
       id="path8"
       style="fill:none;stroke:#000000;stroke-width:8.00003px;stroke-linecap:round;stroke-linejoin:round" />
    <path
       d="M 61.191669,89.425004 V 61.999998 M 72.725003,89.425004 V 50.875"
       class="cls-2"
       id="path10"
       style="fill:none;stroke:#000000;stroke-width:8.00003px;stroke-linecap:round;stroke-miterlimit:10" />
    <ellipse
       cx="86.433342"
       cy="75.716667"
       class="cls-2"
       id="circle12"
       style="fill:none;stroke:#000000;stroke-width:8.00003px;stroke-linecap:round;stroke-miterlimit:10"
       rx="13.708334"
       ry="13.708335" />
    <path
       d="m 134.80834,85.141663 c -2.50001,2.641673 -6.03334,4.283341 -9.95834,4.283341 -7.575,0 -13.70833,-6.141671 -13.70833,-13.708338 0,-7.566668 6.14166,-13.708337 13.70833,-13.708337 7.56667,0 13.70833,6.141669 13.70833,13.708337 h -27.41666"
       class="cls-3"
       id="path14"
       style="fill:none;stroke:#000000;stroke-width:8.00003px;stroke-linecap:round;stroke-linejoin:round" />
    <path
       d="M 149.50833,89.425004 V 63.466666 m 9.81667,0 v 0 c -1.58333,0 -3.14166,0.375004 -4.54167,1.099997 -2.275,1.183336 -5.275,3.308333 -5.275,6.258336"
       class="cls-2"
       id="path16"
       style="fill:none;stroke:#000000;stroke-width:8.00003px;stroke-linecap:round;stroke-miterlimit:10" />
    <path
       d="M 32.658334,103.61668 H 68.025002 V 141.075 l -6.466666,-6.46666 -5.625002,5.63333 -5.608332,-5.60834 -5.666667,5.66668 -5.566667,-5.56667 -6.383334,6.39166 z m 8.991668,11.08333 H 56.858334 M 41.650002,123.35 h 8.691665"
       class="cls-3"
       id="path18"
       style="fill:none;stroke:#000000;stroke-width:8.00003px;stroke-linecap:round;stroke-linejoin:round" />
  </g>
</svg>

<svg width="192" height="192" viewBox="0 0 192 192" xmlns="http://www.w3.org/2000/svg"><path d="M16 16h160v160H16Z" class="cls-1" style="fill:none;stroke-width:.999998"/><path d="M32.658 50.875v26.442c.642 6.758 6.784 12.008 14.067 12.1 7.425.1 13.817-5.209 14.467-12.1V50.875" class="cls-3" style="fill:none;stroke:#000;stroke-width:8.00003px;stroke-linecap:round;stroke-linejoin:round"/><path d="M61.192 89.425V62m11.533 27.425v-38.55" class="cls-2" style="fill:none;stroke:#000;stroke-width:8.00003px;stroke-linecap:round;stroke-miterlimit:10"/><circle cx="86.433" cy="75.717" class="cls-2" style="fill:none;stroke:#000;stroke-width:8.00003px;stroke-linecap:round;stroke-miterlimit:10" r="13.708"/><path d="M134.808 85.142a13.659 13.659 0 0 1-9.958 4.283c-7.575 0-13.708-6.142-13.708-13.708 0-7.567 6.141-13.709 13.708-13.709s13.708 6.142 13.708 13.709h-27.416" class="cls-3" style="fill:none;stroke:#000;stroke-width:8.00003px;stroke-linecap:round;stroke-linejoin:round"/><path d="M149.508 89.425V63.467m9.817 0v0a9.874 9.874 0 0 0-4.542 1.1c-2.275 1.183-5.275 3.308-5.275 6.258" class="cls-2" style="fill:none;stroke:#000;stroke-width:8.00003px;stroke-linecap:round;stroke-miterlimit:10"/><path d="M32.658 103.617h35.367v37.458l-6.467-6.467-5.625 5.634-5.608-5.609-5.667 5.667-5.566-5.567-6.384 6.392zM41.65 114.7h15.208m-15.208 8.65h8.692" class="cls-3" style="fill:none;stroke:#000;stroke-width:8.00003px;stroke-linecap:round;stroke-linejoin:round"/></svg>
